X:1
T:Valse du grand banc
C:Dominique Dimey, abc file by Bernard Loffet
L:1/8
Q:340
M:3/4
K:C
z4[E2A,2]|[A2A,2]A,2[A2A,2]|[B2E,2]E,2[B2E,2]|[c2A,2]A,2[B2A,2]|[A2A,2]A,2[c2A,2]|[e2C,2]C,2[c2C,2]|[d2G,2]G,2[d2G,2]|[e2C,2]C,2C,2|[d2E,2][c2E,2][B2E,2]| \
[A2A,2]A,2A,2|A,2A,2[E2A,2]|[A2A,2]A,2[A2A,2]|[B2E,2]E,2[B2E,2]|[c2A,2]A,2[B2A,2]|[A2A,2]A,2[c2A,2]|[e2C,2]C,2[c2C,2]|[d2G,2]G,2[d2G,2]|[e2C,2]C,2C,2| \
[d2E,2][c2E,2][B2E,2]|[A2A,2]A,2A,2|A,2A,2[a2A,2]|[g2C,2]C,2[e2C,2]|[f2G,2]G,2[d2G,2]|[e2C,2]C,2[c2C,2]|[d2G,2]G,2[a2G,2]|[g2C,2]C,2[e2C,2]|[f2G,2]G,2[d2G,2]| \
[e2C,2]C,2C,2|[d2G,2][c2G,2][d2G,2]|[e2C,2]C,2C,2|C,2C,2[a2G,2]|[g2C,2]C,2[e2C,2]|[f2G,2]G,2[d2G,2]|[e2C,2]C,2[c2C,2]|[d2G,2]G,2[a2G,2]|[g2C,2]C,2[e2C,2]| \
[f2G,2]G,2[d2G,2]|[e2C,2]C,2C,2|[d2E,2][c2E,2][B2E,2]|[A2A,2]A,2A,2|A,2A,4| \
Z:Created with TablEdit http://www.tabledit.com/ by Bernard Loffet

